!!!!SEGMENT: pl-wtm--r-1489_stefani-jozef--povera-cantatrice.krn
!!!cenid: 18xx:2227
!!!COM: Stefani, Józef
!!!COM-rismID: pe30024097
!!!CDT: 1800/04/16-1876/03/19
!!!CNT: Polish
!!!OTL: Povera Cantatrice
!!!PDT:
!!!AGN:
!!!SMS-siglum: PL-Wtm
!!!SMS-shelfmark: R 1489
!!!SMS-shelfwork: W
!!!SMS-variant:
!!!SMS-altvar:
!!!NIFC-rismSourceID: 1001119953
!!!NIFC-islandoraID: pl-wtm:26046
!!!URL-pdf-islandora: https://repozytorium.nifc.pl/islandora/object/pl-wtm%3A26046/datastream/PDF/view
!!!URL-scan: https://polish.musicsources.pl/pl/lokalizacje/galeria/rekopisy/6301 @EN{Scan on Polish Music Sources Website} @PL{Skany w portalu Dziedzictwo Muzyki Polskiej w otwartym dostępie}
!!!ONB-nifc:
!!!AIN: 1 piano 1 vox
!!!key:
**kern	**kern	**dynam	**kern	**text	**dynam
*part2	*part2	*part2	*part1	*part1	*part1
*staff3	*staff2	*	*staff1	*staff1	*
*Ipiano	*Ipiano	*	*Ivox	*	*
*I"Piano.	*I"Piano.	*	*I"Voce	*	*
*clefF4	*clefG2	*	*clefG2	*	*
*k[b-e-a-]	*k[b-e-a-]	*	*k[b-e-a-]	*	*
*c:	*c:	*	*c:	*	*
*M2/4	*M2/4	*	*M2/4	*	*
=1	=1	=1	=1	=1	=1
*2\right	*2\right	*	*	*	*
!	!	!	!LO:TX:a:i:t=Andante.	!	!
!	!	!LO:DY:b:rj	!LO:TX:t=P:problem=all\right&colon; global	!	!
8.A- 8.AA-\	8.ccc 8.cc\	f	2r	.	.
16A- 16AA-\	16cc 16c/	.	.	.	.
[>4A- [>4AA-\	[>4cc [<4c/	.	.	.	.
=2	=2	=2	=2	=2	=2
8A-] 8AA-\]	8cc] 8c/]	.	2r	.	.
!	!	!LO:HP:a	!	!	!
8A-L 8AA-\	8dL 8c/	<	.	.	.
8A- 8AA-\	8e- 8c/	.	.	.	.
8A-J 8AA-\	8fJ 8c/	[	.	.	.
=3	=3	=3	=3	=3	=3
!	!	!LO:HP:a	!	!	!
4.G 4.GG/	4.g 4.Bn/	>	2r	.	.
8F 8FF/	8a- 8c/	]	.	.	.
=4	=4	=4	=4	=4	=4
4G 4GG\	4g 4Bn/	.	2r	.	.
4A- 4AA-\	4f 4c/	.	.	.	.
=5	=5	=5	=5	=5	=5
2G 2GG\	4e- 4c/	.	2r	.	.
.	4cc 4e- 4c/	.	.	.	.
!!LO:LB:g=original
=6	=6	=6	=6	=6	=6
2G 2GG/	4e- 4c/	.	2r	.	.
.	4g 4Bn/	.	.	.	.
=7	=7	=7	=7	=7	=7
4C/	4c/	.	2r	.	.
(<4AA-/	(<4A-/	.	.	.	.
=8	=8	=8	=8	=8	=8
4.GG/)	4.G/)	.	4r	.	.
.	.	.	(<8.g/L	Ah!	.
8r	8r	.	.	.	.
!	!	!LO:DY:b	!	!	!
.	.	p	16ee-/Jk)	.	.
=9	=9	=9	=9	=9	=9
8C 8CC\	8r	.	8ee-\	Jak	.
8rBB	8e- 8c 8G</	.	8ee-\	to	.
8C 8CC\	8r	.	8.dd\	mu-	.
8rBB	8e- 8c 8G</	.	.	.	.
.	.	.	16cc\	-szą	.
=10	=10	=10	=10	=10	=10
8GG 8GGG/	8r	.	4.bn/	źie-	.
8rBB	8d 8Bn 8G</	.	.	.	.
4F 4FF\	8r	.	.	.	.
.	8d 8B 8G</	.	8g/	-wać	.
!!LO:LB:g=original
=11	=11	=11	=11	=11	=11
4E- 4EE-\	8r	.	8cc\	Gdy	.
.	.	.	(<8qdd/	.	.
.	8gL 8c 8G</	.	8cc\)	źle	.
8DL 8DD\	8f 8Bn 8G</	.	8bn\	i-	.
8CJ 8CC\	8e-J 8c 8G</	.	8cc\	-dzie	.
=12	=12	=12	=12	=12	=12
*	*	*	*2\right	*	*
2GG 2GGG/	2d 2Bn 2G</	.	2dd\	spiew	.
=13	=13	=13	=13	=13	=13
8BB- 8BBB-/	8r	.	8b-X\	Ja	.
8rBB	8d 8B-X 8A-< 8F</	.	8b-\	bym	.
.	.	.	8qdd/	.	.
8BB- 8BBB-/	8r	.	8.cc\	chcia-	.
8rBB	8d 8B- 8A-< 8F</	.	.	.	.
.	.	.	16b-\	-ła	.
=14	=14	=14	=14	=14	=14
8E- 8EE-\	8r	.	4gg\	śpie-	.
8rBB	8e- 8B- 8G</	.	.	.	.
8E- 8EE-\	8r	.	4ee-\	-wać	.
8rBB	8e- 8B- 8G</	.	.	.	.
!!LO:LB:g=original
=15	=15	=15	=15	=15	=15
8AA- 8AAA-\	8f 8c 8A-</	.	8cc\	lecz	.
8r;>	8r;>	.	16ff\	tu	.
.	.	.	16r;>	.	.
8BB-L 8BBB-\	8B-<L 8G</	.	8b-\	brak	.
8BB-J 8BBB-\	8dJ 8B-< 8A-</	.	8dd\	mi	.
=16	=16	=16	=16	=16	=16
8E- 8EE-\	8e-L 8B- 8G</	.	4ee-\	f	.
8E-\L	8e- 8B- 8G</	.	.	.	.
8D\	8f 8Bn 8G</	.	4r	.	.
8C\J	8e-J 8c 8G</	.	.	.	.
=17	=17	=17	=17	=17	=17
8GG/	8r	.	8bn/	Cho-	.
8rBB	8d 8Bn 8G</	.	8g/	-ciasz	.
.	.	.	(<8qb-X/	.	.
4F 4FF\	8r	.	8.a-/)	g	.
.	8d 8B 8G</	.	.	.	.
.	.	.	16g/	do-	.
=18	=18	=18	=18	=18	=18
4E- 4EE-\	8r	.	4gg\	-sta-	.
.	8c 8G</	.	.	.	.
4C 4CC/	8r	.	4ee-\	-nę	.
.	8e- 8c 8G</	.	.	.	.
!!LO:PB:g=original
=19	=19	=19	=19	=19	=19
8FF 8FFF/	8d-X 8A-< 8F</	.	8dd-X\	I	.
8r	8r	.	8aa-\	do-	.
4GG 4GGG\	4Bn 4G< 4F< 4D</	.	8.gg\	-się-	.
.	.	.	16dd-\	-gne	.
=20	=20	=20	=20	=20	=20
2C 2CC\	2c 2G< 2E-</	.	2ee-\	as	.
=21	=21	=21	=21	=21	=21
8FF 8FFF/	8r	.	8dd\	A-	.
8rBB	8f 8d 8A-< 8F</	.	8dd\	-le	.
.	.	.	(<8qff/	.	.
8FF 8FFF/	8r	.	8.ee-\)	za	.
8rBB	8f 8d 8A-</	.	.	.	.
.	.	.	16dd\	to	.
=22	=22	=22	=22	=22	=22
8GG 8GGG/	8r	.	4cc\	w gar-	.
8rBB	8e- 8c 8G</	.	.	.	.
8G 8GG\	8r	.	4g/	-dle	.
8r	8g 8e- 8c/	.	.	.	.
!!LO:LB:g=original
=23	=23	=23	=23	=23	=23
*	*^	*	*	*	*
2A- 2AA-\	8r	8rcyy	.	8f/	zro-	.
!	!	!	!	!	!	!LO:HP:a
.	8f/L	8c\	.	8f/	-bi	<
!	!	!	!LO:HP:b	!	!	!
.	8e-/	4c\	<	8e-/	ra-	.
.	8f/J	.	[[	8f/	-nę	[
*	*v	*v	*	*	*	*
=24	=24	=24	=24	=24	=24
!	!	!LO:DY:b:rj	!	!	!
8GL 8GG\	4g 4d 4Bn/	f	4g/	czas.	.
8F 8FF\	.	.	.	.	.
8E- 8EE-\	4r	.	(<8.g/L	Ah!	.
!	!	!LO:DY:b	!	!	!
8DJ 8DD\	.	p	.	.	.
.	.	.	16ee-/Jk)	.	.
=25	=25	=25	=25	=25	=25
8C 8CC/	8r	.	8ee-\	Jak	.
8rBB	8e- 8c 8G</	.	8ee-\	to	.
8C 8CC/	8r	.	8.dd\	mu-	.
8rBB	8e- 8c 8G</	.	.	.	.
.	.	.	16cc\	-szą	.
=26	=26	=26	=26	=26	=26
8GG 8GGG/	8r	.	4.bn/	źie-	.
8rBB	8d 8Bn 8G</	.	.	.	.
4F 4FF\	8r	.	.	.	.
.	8d 8B 8G</	.	8g/	-wać	.
!!LO:LB:g=original
=27	=27	=27	=27	=27	=27
4E- 4EE-/	8r	.	8cc\	Gdy	.
.	.	.	(<8qdd/	.	.
.	8gL 8c 8G</	.	8cc\)	źle	.
8D\L 8DD\	8f 8Bn 8G</	.	8bn\	i-	.
8C\J 8CC\	8e-J 8c 8G</	.	8cc\	-dzie	.
=28	=28	=28	=28	=28	=28
2GG 2GGG/	2d 2Bn 2G</	.	2dd\	śpiew	.
=29	=29	=29	=29	=29	=29
8BB-X 8BBB-X/	8r	.	8b-X\	Ja	.
8rBB	8d 8B-X 8A-< 8F</	.	8b-\	iuż	.
.	.	.	(<8qdd/	.	.
8BB- 8BBB-/	8r	.	8cc\)	nie	.
8rBB	8d 8B- 8A-< 8F</	.	8b-\	chcę	.
=30	=30	=30	=30	=30	=30
8E- 8EE-\	8r	.	4gg\	śpie-	.
8rBB	8e- 8B- 8G</	.	.	.	.
8E- 8EE-\	8r	.	4ee-\	-wać	.
8rBB	8e- 8B- 8G</	.	.	.	.
!!LO:LB:g=original
=31	=31	=31	=31	=31	=31
8AA- 8AAA-/	8f 8c 8A-</	.	8cc\	bo	.
8r;>	8r;>	.	16ff\	tu	.
.	.	.	16r;>	.	.
8BB-L 8BBB-\	8B-<L 8G</	.	8b-\	brak	.
8BB-J 8BBB-\	8dJ 8B-< 8A-</	.	8dd\	mi	.
=32	=32	=32	=32	=32	=32
4E- 4EE-\	4e- 4B-< 4G</	.	4ee-\	f	.
4r	4r	.	4r	.	.
=33	=33	=33	=33	=33	=33
4.FF 4.FFF/	4.f 4.d-X 4.A-</	.	(>4a-/	la	.
.	.	.	8aa-\)	.	.
8r	8r	.	8r	.	.
=34	=34	=34	=34	=34	=34
4.GG 4.GGG/	4.e- 4.c 4.G</	.	(>4g/	sol	.
.	.	.	8gg\)	.	.
8r	8r	.	8r	.	.
=35	=35	=35	=35	=35	=35
8GG 8GGG\	8f 8Bn 8G</	.	8dd\	re	.
8r	8r	.	8g/	sol	.
.	.	.	(<8qff/	.	.
8GG 8GGG\	8f 8B 8G</	.	8.ee-\)	mi	.
8r	8r	.	.	.	.
.	.	.	16dd\	re	.
=36	=36	=36	=36	=36	=36
4C 4CC\	4e- 4c 4G</	.	4cc\	do.	.
4r	4r	.	4r	.	.
!!LO:PB:g=original
=37	=37	=37	=37	=37	=37
!	!	!LO:DY:b:rj	!	!	!
4.d-X 4.A- 4.F\	16a-|>\LL	f	2r	.	.
.	(>32b-\L	.	.	.	.
.	32cc\JJJ	.	.	.	.
.	32dd-X\LLL	.	.	.	.
.	32ee-\	.	.	.	.
.	32ff\	.	.	.	.
.	32gg\JJJ	.	.	.	.
.	8aa-\)	.	.	.	.
8r	8r	.	.	.	.
=38	=38	=38	=38	=38	=38
4.e- 4.c 4.G\	16g|</LL	.	2r	.	.
.	(<32an/L	.	.	.	.
.	32bn/	.	.	.	.
.	32cc/	.	.	.	.
.	32ddn/	.	.	.	.
.	32ee-/	.	.	.	.
.	32ff/JJJ	.	.	.	.
.	8gg\)	.	.	.	.
!	!	!LO:DY:b	!	!	!
8r	8r	p	.	.	.
=39	=39	=39	=39	=39	=39
2f 2Bn 2G\	8dd'</L	.	2r	.	.
.	8g'</J	.	.	.	.
.	(<8qff/	.	.	.	.
.	8.ee-\L)	.	.	.	.
.	16dd|>\Jk	.	.	.	.
!!LO:LB:g=original
=40	=40	=40	=40	=40	=40
4.e- 4.c\	(>4cc\	.	2r	.	.
.	8ccc\)	.	.	.	.
8r;>	8r;>	.	.	.	.
==	==	==	==	==	==
*-	*-	*-	*-	*-	*-
!!!system-decoration: s1{(s2,s3)}
!!!RDF**kern: | = vertical stroke
!!!RDF**kern: > = above
!!!RDF**kern: < = below
!!!EED: Antoni Szymański
!!!EEV: 2021-06-05
!!!ENC: Mateusz Solarz
!!!END: 2021-05-20
!!!YEC: Copyright 2022 Narodowy Instytut Fryderyka Chopina (https://polishscores.org)
!!!YEM: Licence CC BY 4.0 (https://creativecommons.org/licenses/by/4.0)
